X:1
T:Billy Boy
M:3/4
L:1/16
K:C
 D2G2 BB| d6 ee B2 dd| G6 D2G2 BB| d8 e2B2|
M:2/4
d-dG-GB-BG-G|
M:3/4
 B6 GG B2 GG| E D- D4 D2 GG A2| B6 G2A2 GG| E G- G4||
